X:1
T:Elegie
T:Elegie
T:Johann Kaspar Mertz (tabbed by Classical Guitar Empire)
T:Edited by André Lavor
C:Johann Kaspar Mertz (tabbed by Classical Guitar Empire)
Z:Edited by André Lavor
%%score { ( 1 2 5 7 ) | ( 3 4 6 8 ) }
L:1/8
Q:1/4=50
M:12/8
K:C
V:1 treble-8 nm="Guitar" snm="Guit."
V:2 treble-8 
V:5 treble-8 
V:7 treble-8 
V:3 tab stafflines=6 strings=E2,A2,D3,G3,B3,E4 nostems 
V:4 tab stafflines=6 strings=E2,A2,D3,G3,B3,E4 nostems 
V:6 tab stafflines=6 strings=E2,A2,D3,G3,B3,E4 nostems 
V:8 tab stafflines=6 strings=E2,A2,D3,G3,B3,E4 nostems 
V:1
!p!"^Largo" [EAc]3 [EAc]2 [EAc] [CFA]6 | [DFAB]3 [DFAB]2 [DFAB] [E,B,E^G]6 | %2
!mp!!<(! !arpeggio![CEAce]3!mf! e2 e!f! c'2!>(! a!mf! fd!<)!!mp![FB]!>)! | %3
!mp! f2 e{/g} f2 e [^GBe]2 z2!>(! [Gdf]e!>)! | %4
"^espressivo il canto"!mp! [ec']3 [ec']2!mp! c'/>b/!p! !arpeggio![fa]4 z2 | %5
!mp! b3 b2- b/>a/ !arpeggio!^g3- g2!mp! g | %6
 a3!mp! !4!b2 !4!b/!mp!!4!d'/ !>!d'2!mp! !1!c' !>!!4!c'2!mp! !3!b | %7
!p! !0!e2- e e[Ace][ce]!mp! !1![ea][ea][cea] [cea]!3![cea]!mp![cea] |!f! B!mf!BB f3 f3 e2- e/>e/ | %9
 e3!mf! !>!^f2- f/>=f/ e3!mf! !>!^f2- f/>=f/ | %10
 !>!e3!mp! e3!mf! !0!!4![B^g]!0![Be]!1![B=f]!f! !4![Bg]!0![Be]!ff!!4![Bg] | %11
 [^GBe]2!p!"^harm.""^12" z2 (3z/!pp!"_loco" [B^e^g]/[Beg]/(3[Beg]/[Beg]/[Beg]/ [B=eg]2!p!"^harm.""^12" z2 (3z/!pp! [Gdf]/[Gdf]/"^rit."[Q:1/4=42](3[Gdf]/[Q:1/4=34][Gdf]/[Q:1/4=26][Gdf]/ |: %12
!p!"^a tempo"[Q:1/4=50] !0!e!>!!4!fe!mp! z !>!fe z !>!!2!f!1!e!mf! z fe |1 %13
 z !>!!1!f!0!e!f! z !>!fe!ff! z c'b agf :|2 %14
!mf! z !>!fe!f! z !>!fe z!ff!!<(! !>!c'!fff!b!ff!!>(! a!f!=g!mf!f!<)!!>)! || %15
!mf! !0!e!f!d!ff!c B!mf!c!mp!d!f! !>!e6 |!mf! z !>!e2 z !>!f2 z !>!e2 z !>!e2 |: %17
!f!x/B,/4E/4^G/4B,/4E/4G/4B/4E/4G/4B/4e/4G/4B/4e/4^g/4B/4e/4g/4!4!b/!4!e'/x/4"_X"a/4e'/4a/4!ff! c/4a/4e'/4a/4 c/4a/4^d'/4a/4 c/4a/4e'/4a/4 c/4a/4!>!f'/4a/4 c/4a/4e'/4a/4 :| %18
!mf! z3 !4!e'3!mp! z3 e'3 | %19
!p!"^misterioso" z3!mf! !arpeggio!!>![DF]3!p! z3!mf! !arpeggio!!>![CE]3 | %20
!p! z3!mf! !>!D3 !fermata!D3 z z2 || %21
[M:4/4]!p!"^Andante con espressione" (3z Ac (3ecA (3z Ac (3ecA | c'2 c'>b b2 a>e | %23
 (g2 (3f)c3/2d/ e2 (3ee3/2!p!e/ | %24
!p! (3:2:2^d2 d!mp! (9:4:7(1:1:3[^G=d]/"_dolce"b/b/^g/e/"^loco"=f/d/!mf!!<(! z (3B/!f!c/d/!<)!!mf!!>(! e2!>)! | %25
!mp! (3:2:7B/c/^d/e/(3^g/(a/=d'/) z/3 (3:2:5c'/a/e/"^loco"^d/=d/!mf!!<(! (3:2:4!>!c-!f!c!ff!B/!<)!A/ (3:2:6^G/!f!!>(!e/^d/!mf![=de]/[ce]/!mp![Be]/!>)! | %26
!p! c'2 c'>b b2 a2 | %27
!pp! (3[dg]2!p! g/"^ben legato"d'/"_dolcissimo"!mp! (9:4:9(1:1:3d'/^c'/=c'/"^dim."!p!(1:1:3b/a/g/!pp!(1:1:3^f/!>!g3/4=f/4 z2 e>e | %28
!mf! (3e!mp!de (3:2:7g/f/(3(e/f/)A/!mf!_A/d/ (3:2:7d/c/B/c/(3e/g/d'/!f! z (3c'/^d/e/ | %29
!ff! (3:2:4!>![GBa]3/2^g/=g/^f/"^rit."[Q:1/4=45]!f! (3:2:6=f/[Q:1/4=40]!mf!e/"_dolcissimo"[Q:1/4=35]!mp![^F^d]/!p!e/!pp![Q:1/4=30][Ge]3/4[Q:1/4=25][=F=d]/4"^a tempo"[Q:1/4=50] (3c!p![Gce][Gce] (3[Gce][Gce]!mf![ce] | %30
"^dolce"!mf! c'2 (3[fc'][fb][fa] !>!a2 (3:2:6[eg]/g/^f/g/[ec']/e/ | %31
 !>!a2 (3:2:4a!>!gg/f/ !>!^d2 (3:2:2e2 e | %32
[M:3/4] (3c'2"_dolcissimo" c'/f'/ (3:2:6f'/e'/[ad']/c'/b/a/"_loco" !>!a2 | %33
[M:4/4]!p! [CGeg]"^grace notes:"(g/a/) g/(^f/g/)"^[gliss.]"!pp!"_rit."[Q:1/4=45]{/g}e'/ e'/[Q:1/4=40]e'/e'/[Q:1/4=35]"^fin."e'/ .e'/"_dolce"[Q:1/4=30].c'/.g/[Q:1/4=25].e/ | %34
"^ten."!p![Q:1/4=50] !>![fa]2 (3:2:4[GBa][GBg][GBg]/f/ e2 (3e[Ge][Gce] | %35
!mp! (3:2:6z/"^espress." e/[df]/e/[da]/^g/ (3:2:4(g/c'/)!>![dc']3/2b/ (3a=g3/2f/ (3e[ce][ce] | %36
 (3:2:8z/ e/[df]/e/b/4"_cresc."!mf!^g/4!<(!b/4e'/4"^espress." (3:2:6!>!e'/d'/[gd']/c'/c'/b/"_rit."[Q:1/4=45] (3:2:6!>!b/a/[Q:1/4=40]!>!a/=g/[Q:1/4=35]!>!g/!<)!f/"_a tempo"!ff![Q:1/4=50] (3e[ce][ce] | %37
!fff! (3[fa]3/4a/4 [fa]2!fff! (3[ea]3/4a/4 [ea]2!fff! (3[^fa]3/4a/4 [fa]2!fff! (3c'ba |: %38
!f! (3e"_dolce"e'^d' (3d'e'e' (3z b^a (3abb | %39
 (3:2:2!>!c'2 b (3:2:2!>!c'2 b (3:2:2e2 ^d (3:2:2!>!^g2 ^f :: %40
!mf! (3z e^d (3e=fe (3z ^de (3:2:2!>!^g2 ^f :|!mp!"^[dim.]" (3e^de (3:2:1e3- (3ede (3:2:1e3- | %42
!mf! (3e^de (3:2:1e3!<(! (3z =d!f!e!<)!!mf!!>(! (3f!mp!e!p!d!>)! | %43
!mp!!<(! (3:2:4d/a/!mf!a!f!^g!<)!!mf!!>(! (3:2:4g/c'/!mp!c'!p!b!>)!!mp!!<(! (3:2:4b/f'/!mf!f'!f!f'!<)!"_rit."[Q:1/4=40]!mf!!>(! (3f'[Q:1/4=30]!mp!e'[Q:1/4=20]!p!e!>)! | %44
"_loco"[Q:1/4=60]!f! c'2 c'>b b2 a>e | =g>f (3fc3/2d/ e2 (3ee3/2e/ | %46
 (3^ded (9:4:9(1:1:3=d/b/b/(1:1:3a/^g/e/"^loco"(1:1:3=f/B/e/ z/3 (3:2:6c/(3B/c/e/!>!=g3/4f/4 (3:2:4e-ee3/4d/4 | %47
 (3:2:7B/c/^d/e/(3^g/(a/d'/) z/3 (3:2:5c'/a/e/^d/=d/ (3:2:4c-cB/A/ (3:2:6^G/!ff!e/^d/[=de]/[ce]/[Be]/ | %48
!mf! [ec']2 c'>b b2 a2 | %49
!mp! (3[dg]2 g/d'/!p! (9:4:9(1:1:3d'/^c'/=c'/(1:1:3b/a/g/(1:1:3^f/!>!g3/4=f/4 z2 e>e | %50
!mp! (3ede (3:2:7g/f/(3(e/f/)A/_A/d/ (3:2:7d/c/B/c/(3e/g/d'/!mf! z (3c'/^d/e/ | %51
!mp! (3:2:4[Ba]3/2^g/=g/^f/"^rit."[Q:1/4=50]!p! (3:2:6=f/[Q:1/4=45]e/"_dolce"[Q:1/4=40]!pp![^F^d]/[Q:1/4=35]e/[Q:1/4=30][Ge]/[Q:1/4=25][=F=d]/"^a tempo"!p![Q:1/4=50] (3[Ec][Gce][Gce] (3[Gce][Gce][ce] | %52
!mf! c'2 (3c'ba a2 (3:2:6[Geg]/g/[e^f]/g/[ec']/e/ | a2 (3:2:4agg/f/ ^d2 (3:2:2e2 e | %54
[M:3/4] (3c'2 c'/f'/"_dolcissimo"!mp! (3:2:6f'/e'/[ad']/c'/b/a/ a2 | %55
[M:4/4]!p! [CGeg]"_grace notes:"(g/a/) g/(^f/g/)"^[gliss.]"!pp!{/g}.e'/ .e'/.e'/.e'/"_fin.".e'/"_dolce" .e'/.c'/.g/.e/ | %56
!mp! [fa]2 (3:2:4agg/f/ e2 (3e[Ge][Gce] | %57
 (3:2:6z/"^espress."!mf! e/[df]/e/a/^g/ (3:2:4(g/c'/)c'3/2b/ (3a!>!=g3/2f/ (3e[ce][ce] | %58
 (3:2:8z/ e/[df]/e/"_cresc."b/4^g/4b/4e'/4!f! (3:2:6!>!e'/!>!d'/[gd']/!>!c'/c'/!>!b/ (3:2:6b/a/a/=g/g/f/!ff! (3e[ce][ce] | %59
!fff! (3[fa]3/4a/4 [fa]2!fff! (3[ea]3/4a/4 [ea]2!fff! (3[^fa]3/4a/4 [fa]2!fff! (3c'ba | %60
!pp! (3:2:24E,/8c/8f/8e/8A/8c/8f/8e/8 A,/8c/8f/8e/8A/8c/8f/8e/8 C/8c/8f/8e/8A/8c/8f/8e/8 (3:2:24E/8c/8f/8e/8A/8c/8f/8e/8 C/8c/8f/8e/8A/8c/8f/8e/8 A,/8c/8f/8e/8A/8c/8f/8e/8 | %61
 (3:2:24E,/8B/8f/8e/8^G/8B/8f/8e/8 ^G,/8B/8f/8e/8G/8B/8f/8e/8 B,/8B/8f/8e/8G/8B/8f/8e/8 (3:2:24E/8B/8f/8e/8G/8B/8f/8e/8 B,/8B/8f/8e/8G/8B/8f/8e/8 G,/8B/8f/8e/8G/8B/8f/8e/8 |: %62
!f! a2 (3:2:5z z/ c'/b/a/ (3:2:4!>!a!>!^gg/a/ (3:2:5!>!c'-c'/b/c'/b/ :| %63
!p! (3:2:6[cea]/a/a/[ea]/[^e^g]/[=ea]/ (3:2:4!>![ebd'][eac'][Bf]/[ce]/ (3:2:4!>![^Gdf][Ace][Be]/d/!mp! (3:2:6[Ac]/!mf![Ac]/[AB]/!f![AB]/[AB]/[^GBe]/ | %64
!p!"^loco" (3:2:6.A/"_dim.".A/!pp!.A/.A/.A/.A/!mf! (3:2:6.A/!p!.A/.A/.A/!mf!.A/!p!.A/!f! !>!e2!mf! (3:2:2!>!e2!mp! !>!e | %65
 (3[EA]2 !fermata![df]3/4e/4 (3[Ace]2 !fermata!c'3/4b/4!p! (3:2:6[cea]/[cea]/[cea]/!mp![cea]/[cea]/[cea]/!mf! (3[cea][cea]!f![cec'] | %66
!ff! !fermata![A,Acea]8 |] %67
V:2
 A,3 A,2 A, F,6 | x12 | x3 !arpeggio![B,E^Gd]3 !arpeggio![A,Ace]3 [DA]2 x | %3
 !arpeggio![EAc]3 !>![^DAc]3 E!>!F=D!mf!!<(! !>!CB,E,!<)! | %4
 z!p! [Ac][Ac] A[Ac][Ac] [Ac][Ac][Ac] [Ac][Ac][Ac] | D6 !arpeggio![E,E]3 z z D | %6
 C3 !^!!1!^G,3 A,3 D3 | [E,A,]3 z/!p! E,/A,/!4!C/[EA]/A/ !1!c>^GA/^D/ E/B,/!1!C/!mf!!^!^G,/A,/E,/ | %8
 !>!!^!F,3- F,2- F,/>F,/ E,6 | z/!p! E,/^G,/B,/=F/E/ !>!^D3 z/!p! E,/G,/B,/=F/E/ !>!D3 | %10
 z/ E,/^G,/B,/=F/E/ z/ E,/G,/B,/^F/E/ z/ E,/!2!^F,/!3!=G,/!4!^G,/!0!A,/ !1!^A,/!2!B,/!3!C/!4!^C/!0!D/!1!^D/ | %11
 E2 E !>!d3 z2 E !>!b3 |: E,3 !>!!2!D3 E,3 !>!!4!C3 |1 E,3 !>!!^!B,3 A,6 :|2 E,3 B,3 A,6 || %15
 !1!F,6 E,3!p!"^[cresc.]" E/E,/A,/!mp!E,/C/!mf!A,/ | E2 E E2 E E2 E E2 E |: E,6 E,6 :| E,6 E,6 | %19
 E,3 x3 E,3 x x2 | E,3 B,2 F, [E,B,]3 z z2 ||[M:4/4] A,4 A,4 | A,4 A,4 | A,4 A,4 | %24
 (3B,^FA (3E,e^G (3A,EA (3cA!mp!E | (3A,Ac (3ecA (3:2:6E/E,/A,/C/D/^D/ (3:2:5E/ z/ z z/ E,/ | %26
 A,4 A,4 | (3B,DG (3BGD (3CEG (3cGE | (3!>!!^!F,FA (3:2:4B(3:2:2A x/ F (3G,EG (3cGE | %29
 (3!>!!^!G,DG B2 (3[CE] z z (3:2:6z/!mp!!<(! C/B,/C/E/G/!<)! | C2 z2 C2 (3[CG][Ge]G | %31
 (3B,[DGf][DGf] (3:2:4!>!!^![G,GB][DGB]/^C/[DGB] (3=C[EG][EG] (3:2:6E/C/B,/C/E/G/ | %32
[M:3/4] (3:2:2C2 z z2 C2 |[M:4/4] x8 | %34
 (3B,[DG][DG] (3:2:4!>!!^!G,D/^C/D (3=C[EG][EG] (9:4:9(1:1:3G/F/E/(1:1:3D/C/B,/(1:1:3A,/=G,/F,/ | %35
 (3E,^GB (3E,[GB]G (3A,[Ac]A (9:4:9(1:1:3A,/F/E/(1:1:3D/C/B,/(1:1:3A,/=G,/F,/ | %36
 (3E,^G[GBd] (3E,[Be][GBd] (3A,[Ac][Ac] (9:4:9(1:1:3A,/F/E/(1:1:3D/C/B,/(1:1:3A,/^G,/A,/ | %37
 (3:2:6[FAc]/!ff![Ac]/[Ac]/[Ac]/[Ac]/[Ac]/ (3:2:6[EAc]/"^espress."!ff![Ac]/[Ac]/[Ac]/[Ac]/[Ac]/ (3:2:6[^DAc]/!ff![Ac]/[Ac]/[Ac]/[Ac]/[Ac]/ (3:2:6[DAc]/!ff![Ac]/[Ac]/[Ac]/[Ac]/[Ac]/ |: %38
 E,4 E,4 | E,4 E,4 :: E,4 E,4 :| E,4 B,4 | !^!^G,4 E,4 | %43
 (3E,[EBd][EBd] (3E,[^GBd][GBd] (3E,[GBd][GBd] (3[GBd][GBd][GBd] | A,4 A,4 | A,4 A,4 | %46
 (3B,^FA (3[E,^G]eG (3A,E[Ac] (3:2:6c/c/A/E/C3/4B,/4 | %47
 (3A,Ac (3ecA (3:2:6E/E,/A,/C/D/^D/ (3:2:5E/ z/ z z/ E,/ | A,4 A,4 | (3B,DG (3BGD (3CEG (3cGE | %50
 (3F,FA (3:2:4B(3:2:2A x/ F (3G,EG (3cGE | (3!>!!^![G,G]DG (3B z z (3:2:1C3- (3:2:6C/C/B,/C/E/G/ | %52
 (3C[Af][Af] (3[Af][Af][Af] (3C[^F^d][Fd] (3CGG | %53
 (3B,[DG=f][DGf] (3:2:4G,[DGB]/^C/[DGB] (3=C[EG][EG] (3:2:6[EG]/C/[B,G]/C/[EG]/G/ | %54
[M:3/4] (3C[Af][Af] (3[cfa][cf][cf] C2 |[M:4/4] x8 | %56
 (3B,[DG][DG] (3:2:4[G,GB][DGB]/^C/[DGB] (3=C[EG][EG] (9:4:9(1:1:3G/F/E/(1:1:3D/C/B,/(1:1:3A,/=G,/F,/ | %57
 (3E,^G[Bd] (3E,[GBd]G (3A,[Ac]A (9:4:9(1:1:3A,/F/E/(1:1:3D/C/B,/(1:1:3A,/=G,/F,/ | %58
 (3E,^G[GBd] (3E,[Be][GBd] (3A,[Ac][Ac] (9:4:9(1:1:3A,/F/E/(1:1:3D/C/B,/(1:1:3A,/^G,/A,/ | %59
 (3:2:6[FAc]/!ff![Ac]/[Ac]/[Ac]/[Ac]/[Ac]/ (3:2:6[EAc]/!ff![Ac]/[Ac]/[Ac]/[Ac]/[Ac]/ (3:2:6[^DAc]/!ff![Ac]/[Ac]/[Ac]/[Ac]/[Ac]/ (3:2:6[DAc]/!ff![Ac]/[Ac]/[Ac]/[Ac]/[Ac]/ | %60
 (3E,A,C (3ECA, | (3E,!^!^G,B, (3EB,!^!G, |: (3:2:5A,-A,/C/B,/C/ (3:2:5B,A,/A,/A,/A,/ !>!B,2 E,2 :| %63
 (3:2:5A,-A,/c/B/c/ (3:2:6^G/G/A/A,/^G,/A,/ (3:2:6B,/B,/C/C/[DF]/[DF]/ (3:2:6E/F/D/^D/E/E,/ | %64
 (3:2:2A,2 =G, (3:2:2!^![^F,C^D]2 !^![=F,C=D] [E,C]2 (3:2:2[E,B,]2 [E,B,] | %65
 (3:2:2[A,C]2 [E,^G] (3:2:2A,2 [E,EGBd] (3:2:5A,-A,/F/E/C/ (3:2:6A,/E,/A,/E,/A,/E,/ | x8 |] %67
V:3
 [!4!E,!3!A,!2!C]3 [!4!E,!3!A,!2!C]2 [!4!E,!3!A,!2!C] [!5!C,!4!F,!3!A,]6 | %1
 [!5!D,!4!F,!3!A,!2!B,]3 [!5!D,!4!F,!3!A,!2!B,]2 [!5!D,!4!F,!3!A,!2!B,] [!6!E,,!5!B,,!4!E,!3!^G,]6 | %2
!<(! !arpeggio![!5!C,!4!E,!3!A,!2!C!1!E]3 !1!E2 !1!E !1!c2!>(! !1!A !1!F !2!D!<)! [!4!F,!2!B,]!>)! | %3
 !1!F2 !1!E{/!1!G} !1!F2 !1!E [!3!^G,!2!B,!1!E]2 x2!>(! [!3!G,!2!D!1!F] !1!E!>)! | %4
 [!2!E!1!c]3 [!2!E!1!c]2 !1!c3/4 !1!B/4 !arpeggio![!2!F!1!A]4 x2 | %5
 !1!B3 !1!B2- !1!B3/4 !1!A/4 !arpeggio!!1!^G3- !1!G2 !1!G | %6
 !1!A3 !1!B2 !1!B/ !1!d/ !>!!1!d2 !1!c !>!!1!c2 !1!B | %7
 !1!E2- !1!E !1!E [!3!A,!2!C!1!E] [!2!C!1!E] [!2!E!1!A] [!2!E!1!A] [!3!C!2!E!1!A] [!3!C!2!E!1!A] [!3!C!2!E!1!A] [!3!C!2!E!1!A] | %8
 !2!B, !2!B, !2!B, !1!F3 !1!F3 !1!E2- !1!E3/4 !1!E/4 | %9
 !1!E3 !>!!1!^F2- !1!F3/4 !1!=F/4 !1!E3 !>!!1!^F2- !1!F3/4 !1!=F/4 | %10
 !>!!1!E3 !1!E3 [!2!B,!1!^G] [!2!B,!1!E] [!2!B,!1!=F] [!2!B,!1!G] [!2!B,!1!E] [!2!B,!1!G] | %11
 [!3!^G,!2!B,!1!E]2 x2 (3x/ [!3!B,!2!^E!1!^G]/ [!3!B,!2!E!1!G]/ (3[!3!B,!2!E!1!G]/ [!3!B,!2!E!1!G]/ [!3!B,!2!E!1!G]/ [!3!B,!2!=E!1!G]2 x2 (3x/ [!5!G,!4!D!3!F]/ [!5!G,!4!D!3!F]/ (3[!5!G,!4!D!3!F]/ [!5!G,!4!D!3!F]/ [!5!G,!4!D!3!F]/ |: %12
 !1!E !>!!2!F !1!E x !>!!2!F !1!E x !>!!2!F !2!E x !2!F !2!E |1 %13
 x !>!!2!F !1!E x !>!!2!F !1!E x !1!c !1!B !1!A !2!G !2!F :|2 %14
 x !>!!2!F !1!E x !>!!2!F !1!E x!<(! !>!!1!c !1!B!>(! !1!A !2!=G !2!F!<)!!>)! || %15
 !1!E !2!D !2!C !2!B, !2!C !2!D !>!!1!E6 | x !>!!1!E2 x !>!!1!F2 x !>!!1!E2 x !>!!1!E2 |: %17
 !6!E,,/ !5!B,,/4 !4!E,/4 !3!^G,/4 !5!B,,/4 !4!E,/4 !3!G,/4 !2!B,/4 !4!E,/4 !3!G,/4 !2!B,/4 !1!E/4 !3!G,/4 !2!B,/4 !1!E/4 !1!^G/4 !3!B,/4 !2!E/4 !1!G/4 !1!B/ !1!e/ !6!E,,/4 !2!A/4 !1!e/4 !2!A/4 !2!x/4 !2!A/4 !1!e/4 !2!A/4 !2!x/4 !2!A/4 !1!^d/4 !2!A/4 !2!x/4 !2!A/4 !1!e/4 !2!A/4 !2!x/4 !2!A/4 !>!!1!f/4 !2!A/4 !2!x/4 !2!A/4 !1!e/4 !2!A/4 :| %18
 x3 !1!e3 x3 !1!e3 | x3 !arpeggio!!>![!5!D,!4!F,]3 x3 !arpeggio!!>![!5!C,!4!E,]3 | %20
 x3 !>!!4!D,3 !fermata!!4!D,3 x x2 || %21
[M:4/4] (3x !4!A, !3!C (3!2!E !3!C !4!A, (3x !4!A, !3!C (3!2!E !3!C !4!A, | %22
 !1!c2 !1!c3/2 !1!B/ !1!B2 !1!A3/2 !1!E/ | %23
 (!1!G2 (3!1!F) !2!C3/2 !2!D/ !1!E2 (3!1!E !1!E3/2 !1!E/ | %24
 (3:2:2!2!^D2 !2!D (9:4:7(1:1:3[!3!^G,!2!=D]/ !2!B/ !2!B/ (0:0:4!2!^G/ !1!E/ !2!=F/ !2!D/!<(! [x!2!B,!2!C!2!D]4!<)!!>(!!>)! | %25
 (3:2:4!3!B,/ !3!C/ !3!^D/ !1!E/ (9:4:3(1:1:3!2!^G/ (!1!A/ !1!=d/) [x!1!c!1!A!1!E!2!^D!2!=D]6!<(!!<)!!>(!!>)! | %26
 !1!c2 !1!c3/2 !1!B/ !1!B2 !1!A2 | %27
 (3[!2!D!1!G]2 !1!G/ !1!d/ (9:4:9(1:1:3!1!d/ !1!^c/ !1!=c/ (1:1:6(9:4:3!1!B/ !2!A/ !2!G/ (9:4:3(1:1:3!2!^F/ !>!!2!G3/4 !1!=F/4 [x!1!E!1!E]4 | %28
 (3!1!E !2!D !1!E (3:2:14!1!G/ !1!F/ (3:2:5(3(!1!E/ !1!F/) !3!A,/ !3!_A,/ !2!D/ (1:1:4!2!D/ !2!C/ !2!B,/ !2!C/ (3(3!1!E/ !1!G/ !1!d/ [x!1!c!2!^D!1!E]2 | %29
 (3:2:4!>![!3!G,!2!B,!1!A]3/2 !1!^G/ !1!=G/ !1!^F/ (3:2:6!1!=F/ !1!E/ [!5!^F,!3!^D]/ !1!E/ [!3!G,!1!E]3/4 [!5!=F,!3!=D]/4 (3!2!C [!3!G,!2!C!1!E] [!3!G,!2!C!1!E] (3[!3!G,!2!C!1!E] [!3!G,!2!C!1!E] [!2!C!1!E] | %30
 !1!c2 (3[!2!F!1!c] [!2!F!1!B] [!2!F!1!A] !>!!1!A2 (3:2:6[!2!E!1!G]/ !1!G/ !2!^F/ !2!G/ [!2!E!1!c]/ !1!E/ | %31
 !>!!1!A2 (3:2:4!1!A !>!!1!G !1!G/ !1!F/ !>!!2!^D2 (3:2:2!1!E2 !1!E | %32
[M:3/4] (3!1!c2 !1!c/ !1!f/ (3:2:6!1!f/ !1!e/ [!2!A!1!d]/ !2!c/ !2!B/ !2!A/ !>!!2!A2 | %33
[M:4/4] [!5!C,!3!G,!2!E!1!G] (!1!G/ !1!A/) !1!G/ (!1!^F/ !1!G/){/!1!G} !1!e/ !1!e/ !1!e/ !1!e/ !1!e/ .!1!e/ .!2!c/ .!3!G/ .!1!E/ | %34
 !>![!2!F!1!A]2 (3:2:4[!3!G,!2!B,!1!A] [!3!G,!2!B,!1!G] [!3!G,!2!B,!1!G]/ !1!F/ !1!E2 (3!1!E [!3!G,!1!E] [!3!G,!2!C!1!E] | %35
 (3:2:6x/ !1!E/ [!3!D!2!F]/ !1!E/ [!2!D!1!A]/ !1!^G/ (3:2:4(!1!G/ !1!c/) !>![!3!D!1!c]3/2 !1!B/ (3!1!A !2!=G3/2 !2!F/ (3!1!E [!2!C!1!E] [!2!C!1!E] | %36
 (3:2:8x/ !1!E/ [!3!D!2!F]/ !1!E/ !1!B/4 !1!^G/4!<(! !1!B/4 !1!e/4 (3:2:6!>!!1!e/ !1!d/ [!2!G!1!d]/ !2!c/ !1!c/ !1!B/ (3:2:6!>!!1!B/ !1!A/ !>!!1!A/ !2!=G/ !>!!2!G/!<)! !2!F/ (3!1!E [!2!C!1!E] [!2!C!1!E] | %37
 (3[!2!F!1!A]3/4 !1!A/4 [!2!F!1!A]2 (3[!2!E!1!A]3/4 !1!A/4 [!2!E!1!A]2 (3[!2!^F!1!A]3/4 !1!A/4 [!2!F!1!A]2 (3!1!c !1!B !1!A |: %38
 (3!1!E !1!e !1!^d (3!1!d !1!e !1!e (3x !1!B !1!^A (3!1!A !1!B !1!B | %39
 (3:2:2!>!!1!c2 !1!B (3:2:2!>!!1!c2 !1!B (3:2:2!1!E2 !2!^D (3:2:2!>!!1!^G2 !2!^F :: %40
 (3x !2!E !2!^D (3!2!E !2!=F !2!E (3x !2!^D !1!E (3:2:2!>!!1!^G2 !2!^F :| %41
 (3!1!E !2!^D !2!E (3:2:1!2!E3- (3!2!E !2!D !2!E (3:2:1!2!E3- | %42
 (3!2!E !2!^D !2!E (3:2:1!2!E3!<(! (3x !2!=D !1!E!<)!!>(! (3!2!F !1!E !2!D!>)! | %43
!<(! (3:2:4!2!D/ !1!A/ !1!A !1!^G!<)!!>(! (3:2:4!1!G/ !1!c/ !1!c !1!B!>)!!<(! (3:2:4!1!B/ !1!f/ !1!f !1!f!<)!!>(! (3!1!f !1!e !1!E!>)! | %44
 !1!c2 !1!c3/2 !1!B/ !1!B2 !1!A3/2 !1!E/ | %45
 !1!=G3/2 !1!F/ (3!1!F !2!C3/2 !2!D/ !1!E2 (3!1!E !1!E3/2 !1!E/ | %46
 (3!2!^D !1!E !2!D (9:4:9(1:1:3!2!=D/ !2!B/ !2!B/ (1:1:6(9:4:3!2!A/ !2!^G/ !1!E/ (9:4:3(1:1:3!2!=F/ !2!B,/ !1!E/ [x!2!C!2!B,!2!C!1!E!1!=G!1!F!1!E-!1!E!1!E!2!D]4 | %47
 (3:2:4!2!B,/ !2!C/ !2!^D/ !1!E/ (9:4:3(1:1:3!2!^G/ (!1!A/ !1!d/) [x!1!c!1!A!1!E!2!^D!2!=D!2!C-!2!C!2!B,!3!A,!3!^G,!1!E!2!^D!2!=D!1!E!2!C!1!E!2!B,!1!E]6 | %48
 [!2!E!1!c]2 !1!c3/2 !1!B/ !1!B2 !1!A2 | %49
 (3[!2!D!1!G]2 !1!G/ !1!d/ (9:4:9(1:1:3!1!d/ !1!^c/ !1!=c/ (1:1:6(9:4:3!1!B/ !2!A/ !2!G/ (9:4:3(1:1:3!2!^F/ !>!!2!G3/4 !1!=F/4 [x!1!E!1!E]4 | %50
 (3!1!E !2!D !1!E (3:2:14!1!G/ !1!F/ (3:2:5(3(!1!E/ !1!F/) !3!A,/ !3!_A,/ !2!D/ (1:1:4!2!D/ !2!C/ !2!B,/ !2!C/ (3(3!1!E/ !1!G/ !1!d/ [x!1!c!2!^D!1!E]2 | %51
 (3:2:4[!2!B,!1!A]3/2 !1!^G/ !1!=G/ !1!^F/ (3:2:6!1!=F/ !1!E/ [!4!^F,!2!^D]/ !1!E/ [!3!G,!1!E]/ [!4!=F,!2!=D]/ (3[!4!E,!2!C] [!3!G,!2!C!1!E] [!3!G,!2!C!1!E] (3[!3!G,!2!C!1!E] [!3!G,!2!C!1!E] [!2!C!1!E] | %52
 !1!c2 (3!1!c !1!B !1!A !1!A2 (3:2:6[!3!G,!2!E!1!G]/ !1!G/ [!1!E!2!^F]/ !2!G/ [!2!E!1!c]/ !1!E/ | %53
 !1!A2 (3:2:4!1!A !1!G !1!G/ !1!F/ !2!^D2 (3:2:2!1!E2 !1!E | %54
[M:3/4] (3!1!c2 !1!c/ !1!f/ (3:2:6!1!f/ !1!e/ [!2!A!1!d]/ !2!c/ !2!B/ !2!A/ !2!A2 | %55
[M:4/4] [!5!C,!3!G,!2!E!1!G] (!1!G/ !1!A/) !1!G/ (!1!^F/ !1!G/){/!1!G} .!1!e/ .!1!e/ .!1!e/ .!1!e/ .!1!e/ .!1!e/ .!2!c/ .!3!G/ .!1!E/ | %56
 [!2!F!1!A]2 (3:2:4!1!A !1!G !1!G/ !1!F/ !1!E2 (3!1!E [!3!G,!1!E] [!3!G,!2!C!1!E] | %57
 (3:2:6x/ !1!E/ [!3!D!2!F]/ !1!E/ !1!A/ !1!^G/ (3:2:4(!1!G/ !1!c/) !1!c3/2 !1!B/ (3!1!A !>!!2!=G3/2 !2!F/ (3!1!E [!2!C!1!E] [!2!C!1!E] | %58
 (3:2:8x/ !1!E/ [!3!D!2!F]/ !1!E/ !1!B/4 !1!^G/4 !1!B/4 !1!e/4 (3:2:6!>!!1!e/ !>!!1!d/ [!2!G!1!d]/ !>!!2!c/ !1!c/ !>!!1!B/ (3:2:6!1!B/ !1!A/ !1!A/ !2!=G/ !2!G/ !2!F/ (3!1!E [!2!C!1!E] [!2!C!1!E] | %59
 (3[!2!F!1!A]3/4 !1!A/4 [!2!F!1!A]2 (3[!2!E!1!A]3/4 !1!A/4 [!2!E!1!A]2 (3[!2!^F!1!A]3/4 !1!A/4 [!2!F!1!A]2 (3!1!c !1!B !1!A | %60
 (3:2:24!6!E,,/8 !3!C/8 !2!F/8 !1!E/8 !4!A,/8 !3!C/8 !2!F/8 !1!E/8 !6!x/8 !3!C/8 !2!F/8 !1!E/8 !4!A,/8 !3!C/8 !2!F/8 !1!E/8 !5!x/8 !3!C/8 !2!F/8 !1!E/8 !4!A,/8 !3!C/8 !2!F/8 !1!E/8 (3:2:24!4!x/8 !3!C/8 !2!F/8 !1!E/8 !4!A,/8 !3!C/8 !2!F/8 !1!E/8 !5!x/8 !3!C/8 !2!F/8 !1!E/8 !4!A,/8 !3!C/8 !2!F/8 !1!E/8 !6!x/8 !3!C/8 !2!F/8 !1!E/8 !4!A,/8 !3!C/8 !2!F/8 !1!E/8 | %61
 (3:2:24!6!E,,/8 !3!B,/8 !2!F/8 !1!E/8 !4!^G,/8 !3!B,/8 !2!F/8 !1!E/8 !6!^G,,/8 !3!B,/8 !2!F/8 !1!E/8 !4!G,/8 !3!B,/8 !2!F/8 !1!E/8 !6!x/8 !2!B,/8 !1!F/8 !1!E/8 !3!G,/8 !2!B,/8 !1!F/8 !1!E/8 (3:2:24!5!x/8 !2!B,/8 !1!F/8 !1!E/8 !3!G,/8 !2!B,/8 !1!F/8 !1!E/8 !6!x/8 !2!B,/8 !1!F/8 !1!E/8 !3!G,/8 !2!B,/8 !1!F/8 !1!E/8 !6!G,,/8 !3!B,/8 !2!F/8 !1!E/8 !4!G,/8 !3!B,/8 !2!F/8 !1!E/8 |: %62
 !1!A2 (3:2:5x x/ !1!c/ !1!B/ !1!A/ (3:2:4!>!!1!A !>!!1!^G !1!G/ !1!A/ (3:2:5!>!!1!c- !1!c/ !1!B/ !1!c/ !1!B/ :| %63
 (3:2:6[!3!C!2!E!1!A]/ !1!A/ !1!A/ [!2!E!1!A]/ [!2!^E!1!^G]/ [!2!=E!1!A]/ (3:2:4!>![!3!E!2!B!1!d] [!3!E!2!A!1!c] [!2!B,!1!F]/ [!2!C!1!E]/ (3:2:4!>![!3!^G,!2!D!1!F] [!3!A,!2!C!1!E] [!2!B,!1!E]/ !2!D/ (3:2:6[!3!A,!2!C]/ [!3!A,!2!C]/ [!3!A,!2!B,]/ [!3!A,!2!B,]/ [!3!A,!2!B,]/ [!3!^G,!2!B,!1!E]/ | %64
 (3:2:6.!3!A,/ .!3!A,/ .!3!A,/ .!3!A,/ .!3!A,/ .!3!A,/ (3:2:6.!3!A,/ .!3!A,/ .!3!A,/ .!3!A,/ .!3!A,/ .!3!A,/ !>!!1!E2 (3:2:2!>!!1!E2 !>!!1!E | %65
 (3[!4!E,!3!A,]2 !fermata![!2!D!1!F]3/4 !1!E/4 (3[!3!A,!2!C!1!E]2 !fermata!!1!c3/4 !1!B/4 (3:2:6[!3!C!2!E!1!A]/ [!3!C!2!E!1!A]/ [!3!C!2!E!1!A]/ [!3!C!2!E!1!A]/ [!3!C!2!E!1!A]/ [!3!C!2!E!1!A]/ (3[!3!C!2!E!1!A] [!3!C!2!E!1!A] [!3!C!2!E!1!c] | %66
 !fermata![!5!A,,!4!A,!3!C!2!E!1!A]8 |] %67
V:4
 !5!A,,3 !5!A,,2 !5!A,, !6!F,,6 | x12 | %2
 x3 !arpeggio![!5!B,,!4!E,!3!^G,!2!D]3 !arpeggio![!5!A,,!4!A,!3!C!2!E]3 [!4!D,!3!A,]2 x | %3
 !arpeggio![!4!E,!3!A,!2!C]3 !>![!4!^D,!3!A,!2!C]3 !4!E, !>!!4!F, !4!=D,!<(! !>!!5!C, !5!B,, !6!E,,!<)! | %4
 x [!4!A,!3!C] [!4!A,!3!C] !4!A, [!4!A,!3!C] [!4!A,!3!C] [!4!A,!3!C] [!4!A,!3!C] [!4!A,!3!C] [!4!A,!3!C] [!4!A,!3!C] [!4!A,!3!C] | %5
 !5!D,6 !arpeggio![!6!E,,!5!E,]3 x x !4!D, | !6!C,3 !^!!6!^G,,3 !5!A,,3 !4!D,3 | %7
 [!6!E,,!5!A,,]3 x/ !6!E,,/ !5!A,,/ !5!C,/ [!4!E,!3!A,]/ !3!A,/ !3!C3/2 !4!^G,/ !4!A,/ !5!^D,/ !5!E,/ !6!B,,/ !5!C,/ !^!!6!^G,,/ !5!A,,/ !6!E,,/ | %8
 !>!!^!!6!F,,3- !6!F,,2- !6!F,,3/4 !6!F,,/4 !6!E,,6 | %9
 x/ !6!E,,/ !6!^G,,/ !5!B,,/ !4!=F,/ !4!E,/ !>!!4!^D,3 x/ !6!E,,/ !6!G,,/ !5!B,,/ !4!=F,/ !4!E,/ !>!!4!D,3 | %10
 x/ !6!E,,/ !6!^G,,/ !5!B,,/ !4!=F,/ !4!E,/ x/ !6!E,,/ !6!G,,/ !5!B,,/ !4!^F,/ !4!E,/ x/ !6!E,,/ !6!^F,,/ !6!=G,,/ !6!^G,,/ !5!A,,/ !5!^A,,/ !5!B,,/ !5!C,/ !5!^C,/ !4!D,/ !4!^D,/ | %11
 !4!E,2 !6!E, !>!!4!D3 x2 !6!E, !>!!2!B3 |: !6!E,,3 !>!!5!D,3 !6!E,,3 !>!!6!C,3 |1 %13
 !6!E,,3 !>!!^!!5!x3 !5!A,,6 :|2 !6!E,,3 !5!x3 !5!A,,6 || %15
 !6!F,,6 !6!E,,3 !4!E,/ !6!E,,/ !5!A,,/ !6!E,,/ !5!C,/ !5!A,,/ | %16
 !4!E,2 !4!E, !4!E,2 !4!E, !4!E,2 !4!E, !4!E,2 !4!E, |: !6!E,,6 !6!E,,6 :| !6!E,,6 !6!E,,6 | %19
 !6!E,,3 x3 !6!E,,3 x x2 | !6!E,,3 !5!B,,2 !6!F,, [!6!E,,!5!B,,]3 x x2 ||[M:4/4] !5!A,,4 !5!A,,4 | %22
 !5!A,,4 !5!A,,4 | !5!A,,4 !5!A,,4 | %24
 (3!5!B,, !4!^F, !3!A, (3!6!E,, !3!E !4!^G, (3!5!A,, !4!E, !3!A, (3!2!C !3!A, !4!E, | %25
 (3!5!A,, !4!A, !3!C (3!3!E !3!C !3!A, (3:2:6!4!E,/ !6!E,,/ !5!A,,/ !5!C,/ !4!D,/ !4!^D,/ (3:2:5!4!E,/ x/ x x/ !6!E,,/ | %26
 !5!A,,4 !5!A,,4 | %27
 (3!5!B,, !4!D, !3!G, (3!2!B, !3!G, !4!D, (3!5!C, !4!E, !3!G, (3!2!C !3!G, !4!E, | %28
 (3!>!!^!!6!F,, !4!F, !3!A, (3!2!B, [xx!4!F,] !4!F, (3!6!G,, !4!E, !3!G, (3!4!C !3!G, !4!E, | %29
 (3!>!!^!!6!G,, !4!D, !3!G, !2!B,2 (3[!5!C,!4!E,] x x (3:2:6x/!<(! !5!C,/ !5!B,,/ !5!C,/ !4!E,/ !3!G,/!<)! | %30
 !6!C,2 x2 !5!C,2 (3[!5!C,!3!G,] [!3!G,!1!E] !3!G, | %31
 (3!6!B,, [!4!D,!3!G,!2!F] [!4!D,!3!G,!2!F] (3:2:4!>!!^![!6!G,,!3!G,!2!B,] [!4!D,!3!G,!2!B,]/ !5!^C,/ [!4!D,!3!G,!2!B,] (3!5!=C, [!4!E,!3!G,] [!4!E,!3!G,] (3:2:6!4!E,/ !5!C,/ !5!B,,/ !5!C,/ !4!E,/ !4!G,/ | %32
[M:3/4] (3:2:2!6!C,2 x x2 !6!C,2 |[M:4/4] x8 | %34
 (3!6!B,, [!4!D,!3!G,] [!4!D,!3!G,] (3:2:4!>!!^!!6!G,, !4!D,/ !5!^C,/ !4!D, (3!5!=C, [!4!E,!3!G,] [!4!E,!3!G,] (9:4:9(1:1:3!3!G,/ !4!F,/ !4!E,/ (1:1:6(9:4:3!4!D,/ !5!C,/ !5!B,,/ (9:4:3(1:1:3!5!A,,/ !6!=G,,/ !6!F,,/ | %35
 (3!6!E,, !4!^G, !3!B, (3!6!E,, [!4!G,!2!B,] !4!G, (3!5!A,, [!4!A,!3!C] !4!A, (9:4:9(1:1:3!5!A,,/ !4!F,/ !4!E,/ (1:1:6(9:4:3!4!D,/ !5!C,/ !5!B,,/ (9:4:3(1:1:3!5!A,,/ !6!=G,,/ !6!F,,/ | %36
 (3!6!E,, !4!^G, [!4!G,!2!B,!3!D] (3!6!E,, [!4!B,!3!E] [!4!G,!2!B,!3!D] (3!5!A,, [!4!A,!3!C] [!4!A,!3!C] (9:4:9(1:1:3!5!A,,/ !4!F,/ !4!E,/ (1:1:6(9:4:3!4!D,/ !5!C,/ !5!B,,/ (9:4:3(1:1:3!5!A,,/ !6!^G,,/ !5!A,,/ | %37
 (3:2:6[!5!F,!4!A,!3!C]/ [!4!A,!3!C]/ [!4!A,!3!C]/ [!4!A,!3!C]/ [!4!A,!3!C]/ [!4!A,!3!C]/ (3:2:6[!5!E,!4!A,!3!C]/ [!4!A,!3!C]/ [!4!A,!3!C]/ [!4!A,!3!C]/ [!4!A,!3!C]/ [!4!A,!3!C]/ (3:2:6[!5!^D,!4!A,!3!C]/ [!4!A,!3!C]/ [!4!A,!3!C]/ [!4!A,!3!C]/ [!4!A,!3!C]/ [!4!A,!3!C]/ (3:2:6[!5!D,!4!A,!3!C]/ [!4!A,!3!C]/ [!4!A,!3!C]/ [!4!A,!3!C]/ [!4!A,!3!C]/ [!4!A,!3!C]/ |: %38
 !6!E,,4 !6!E,,4 | !6!E,,4 !6!E,,4 :: !6!E,,4 !6!E,,4 :| !6!E,,4 !6!B,,4 | !^!!6!^G,,4 !6!E,,4 | %43
 (3!6!E,, [!4!E,!3!B,!2!D] [!4!E,!3!B,!2!D] (3!6!E,, [!4!^G,!2!B,!3!D] [!4!G,!2!B,!3!D] (3!6!E,, [!5!G,!2!B,!4!D] [!5!G,!2!B,!4!D] (3[!5!G,!2!B,!4!D] [!5!G,!2!B,!4!D] [!5!G,!2!B,!4!D] | %44
 !5!A,,4 !5!A,,4 | !5!A,,4 !5!A,,4 | %46
 (3!5!B,, !4!^F, !3!A, (3[!6!E,,!3!^G,] !3!E !4!G, (3!5!A,, !4!E, [!3!A,!2!C] (3:2:6!2!C/ !2!C/ !3!A,/ !4!E,/ !5!C,3/4 !5!B,,/4 | %47
 (3!5!A,, !3!A, !3!C (3!3!E !3!C !3!A, (3:2:6!4!E,/ !6!E,,/ !5!A,,/ !5!C,/ !4!D,/ !4!^D,/ (3:2:5!4!E,/ x/ x x/ !6!E,,/ | %48
 !5!A,,4 !5!A,,4 | %49
 (3!5!B,, !4!D, !3!G, (3!2!B, !3!G, !4!D, (3!5!C, !4!E, !3!G, (3!2!C !3!G, !4!E, | %50
 (3!6!F,, !4!F, !3!A, (3!2!B, [xx!4!F,] !4!F, (3!6!G,, !4!E, !3!G, (3!4!C !3!G, !4!E, | %51
 (3!>!!^![!6!G,,!3!G,] !4!D, !3!G, (3!2!B, x x (3:2:1!5!C,3- (3:2:6!5!C,/ !5!C,/ !5!B,,/ !5!C,/ !4!E,/ !3!G,/ | %52
 (3!6!C, [!4!A,!2!F] [!4!A,!2!F] (3[!4!A,!2!F] [!4!A,!2!F] [!4!A,!2!F] (3!5!C, [!4!^F,!2!^D] [!4!F,!2!D] (3!5!C, !3!G, !3!G, | %53
 (3!6!B,, [!4!D,!3!G,!2!=F] [!4!D,!3!G,!2!F] (3:2:4!6!G,, [!4!D,!3!G,!2!B,]/ !5!^C,/ [!4!D,!3!G,!2!B,] (3!5!=C, [!4!E,!3!G,] [!4!E,!3!G,] (3:2:6[!4!E,!3!G,]/ !5!C,/ [!5!B,,!3!G,]/ !5!C,/ [!4!E,!3!G,]/ !3!G,/ | %54
[M:3/4] (3!6!C, [!4!A,!2!F] [!4!A,!2!F] (3[!4!C!3!F!2!A] [!4!C!3!F] [!4!C!3!F] !6!C,2 |[M:4/4] x8 | %56
 (3!6!B,, [!4!D,!3!G,] [!4!D,!3!G,] (3:2:4[!6!G,,!3!G,!2!B,] [!4!D,!3!G,!2!B,]/ !5!^C,/ [!4!D,!3!G,!2!B,] (3!5!=C, [!4!E,!3!G,] [!4!E,!3!G,] (9:4:9(1:1:3!3!G,/ !4!F,/ !4!E,/ (1:1:6(9:4:3!4!D,/ !5!C,/ !5!B,,/ (9:4:3(1:1:3!5!A,,/ !6!=G,,/ !6!F,,/ | %57
 (3!6!E,, !4!^G, [!3!B,!2!D] (3!6!E,, [!4!G,!2!B,!3!D] !4!G, (3!5!A,, [!4!A,!3!C] !4!A, (9:4:9(1:1:3!5!A,,/ !4!F,/ !4!E,/ (1:1:6(9:4:3!4!D,/ !5!C,/ !5!B,,/ (9:4:3(1:1:3!5!A,,/ !6!=G,,/ !6!F,,/ | %58
 (3!6!E,, !4!^G, [!4!G,!2!B,!3!D] (3!6!E,, [!4!B,!3!E] [!4!G,!2!B,!3!D] (3!5!A,, [!4!A,!3!C] [!4!A,!3!C] (9:4:9(1:1:3!5!A,,/ !4!F,/ !4!E,/ (1:1:6(9:4:3!4!D,/ !5!C,/ !5!B,,/ (9:4:3(1:1:3!5!A,,/ !6!^G,,/ !5!A,,/ | %59
 (3:2:6[!5!F,!4!A,!3!C]/ [!4!A,!3!C]/ [!4!A,!3!C]/ [!4!A,!3!C]/ [!4!A,!3!C]/ [!4!A,!3!C]/ (3:2:6[!5!E,!4!A,!3!C]/ [!4!A,!3!C]/ [!4!A,!3!C]/ [!4!A,!3!C]/ [!4!A,!3!C]/ [!4!A,!3!C]/ (3:2:6[!5!^D,!4!A,!3!C]/ [!4!A,!3!C]/ [!4!A,!3!C]/ [!4!A,!3!C]/ [!4!A,!3!C]/ [!4!A,!3!C]/ (3:2:6[!5!D,!4!A,!3!C]/ [!4!A,!3!C]/ [!4!A,!3!C]/ [!4!A,!3!C]/ [!4!A,!3!C]/ [!4!A,!3!C]/ | %60
 (3!6!E,, !5!A,, !6!C, (3!5!E, !6!C, !5!A,, | %61
 (3!6!E,, !^!!6!^G,, !5!B,, (3!4!E, !5!B,, !^!!6!G,, |: %62
 (3:2:5!5!A,,- !5!A,,/ !6!C,/ !6!B,,/ !6!C,/ (3:2:5!6!B,, !5!A,,/ !5!A,,/ !5!A,,/ !5!A,,/ !>!!6!B,,2 !6!E,,2 :| %63
 (3:2:5!5!A,,- !5!A,,/ !3!C/ !3!B,/ !3!C/ (3:2:6!5!^G,/ !5!G,/ !4!A,/ !5!A,,/ !6!^G,,/ !5!A,,/ (3:2:6!5!B,,/ !5!B,,/ !5!C,/ !5!C,/ [!5!D,!4!F,]/ [!5!D,!4!F,]/ (3:2:6!4!E,/ !4!F,/ !4!D,/ !4!^D,/ !4!E,/ !6!E,,/ | %64
 (3:2:2!5!A,,2 !6!=G,, (3:2:2!^![!6!^F,,!5!C,!4!^D,]2 !^![!6!=F,,!5!C,!4!=D,] [!6!E,,!5!C,]2 (3:2:2[!6!E,,!5!B,,]2 [!6!E,,!5!B,,] | %65
 (3:2:2[!6!A,,!5!C,]2 [!6!E,,!3!^G,] (3:2:2!5!A,,2 [!6!E,,!5!E,!4!G,!2!B,!3!D] (3:2:5!5!A,,- !5!A,,/ !5!F,/ !5!E,/ !6!C,/ (3:2:6!5!A,,/ !6!E,,/ !5!A,,/ !6!E,,/ !5!A,,/ !6!E,,/ | %66
 x8 |] %67
V:5
 x12 | x12 | x12 | x12 | A,6 F6 | %5
 [Bf]!0![DBf][DBf] [DBf][DBf][DBf] !arpeggio![^GBe]!p![GBe][GBe] !>![GBf][GBe][Bf] | %6
 [ce]!p!!>![Acf][Ace] !0!!3![Bd]!p!!2![^GBd][GBd] z!p! !3!!2![ce][ce] z!p! !2!!1![df][df] | %7
 !3!!1![Ac]!mp![Ac][Ac] [Ac] x8 | AAA [AB][AB][AB] z [AB][AB] z [AB][AB] | %9
 [^GB][GB][GB] [Ac][Ac][Ac] [GB][GB][GB] [Ac][Ac][Ac] | [^GB][GB][GB] [GB][GB][GB] x2 x4 | x12 |: %12
 e/4!1!B/4!3!^G/4B/4 f/4B/4G/4B/4 e/4B/4G/4B/4x/4B/4G/4B/4x/4B/4G/4B/4 e/4B/4G/4B/4x/4"^V"!1!c/4!3!A/4c/4 f/4c/4A/4c/4 e/4c/4A/4c/4x/4c/4A/4c/4 f/4c/4A/4c/4 e/4c/4A/4c/4 |1 %13
x/4!3!d/4!4!B/4d/4 f/4d/4B/4d/4 e/4d/4B/4d/4!2!x/4d/4B/4d/4 f/4d/4B/4d/4 e/4d/4B/4d/4!0!x/4"_V"c/4A/4c/4 c'/4c/4A/4c/4 b/4c/4A/4c/4 a/4c/4A/4c/4 g/4c/4A/4c/4 f/4c/4A/4c/4 :|2 %14
x/4d/4B/4d/4 f/4d/4B/4d/4 e/4d/4B/4d/4x/4d/4B/4d/4 f/4d/4B/4d/4 e/4d/4B/4d/4x/4"_V"c/4A/4c/4 c'/4c/4A/4c/4 b/4c/4A/4c/4 a/4c/4A/4c/4 g/4c/4A/4c/4 f/4c/4A/4c/4 || %15
 e/4!<(!A/4F/4A/4 d/4A/4F/4A/4 c/4A/4F/4A/4!<)! B/4!f!!>(!A/4F/4A/4 c/4A/4F/4A/4 d/4A/4F/4A/4!>)! [Ac]/!pp!E/4[Ac]/4E/4[Ac]/4E/4[Ac]/4E/4[Ac]/4E/4[Ac]/4 E/4[Ac]/4E,/4[Ac]/4A,/4[Ac]/4E,/4[Ac]/4C/4[Ac]/4A,/4[Ac]/4 | %16
 E/4c/4A/4c/4 e/4c/4A/4c/4 E/4c/4A/4c/4 E/4c/4A/4c/4 f/4c/4A/4c/4 E/4c/4A/4c/4 E/4B/4A/4B/4 e/4B/4A/4B/4 E/4B/4A/4B/4 E/4B/4^G/4B/4 e/4B/4G/4B/4 E/4B/4G/4B/4 |: %17
 x6 z cc ccc :| %18
x/4!1!e/4!3!d/4e/4!2!^G/4e/4d/4e/4!0!B/4e/4d/4e/4x/4e/4d/4e/4B/4e/4d/4e/4G/4e/4d/4e/4x/4e/4d/4e/4G/4e/4d/4e/4B/4e/4d/4e/4x/4e/4d/4e/4B/4e/4d/4e/4G/4e/4d/4e/4 | %19
 x12 | x12 ||[M:4/4] x8 | (3z Ac (3ecA (3z Ac (3ecA | %23
 (3z!<(! FA (3cAF (3z!<)! E!mp!!>(!A (3cAE!>)! | x8 | x8 | (3eAc (3ecA(3xAc (3ecA | x8 | x8 | x8 | %30
 (3z [Af][Af] (3AAA (3z [^F^d][Fd] x2 | x6 (3GGG | %32
[M:3/4] (3z [Af][Af] (3[cfa][cf][cf] (3z [^F^d][Fd] |[M:4/4] x8 | x8 | x8 | x8 | x8 |: %38
(3:2:12x/4B/4^G/4B/4x/4B/4G/4B/4x/4B/4G/4B/4(3:2:12x/4B/4G/4B/4x/4B/4G/4B/4x/4B/4G/4B/4(3:2:12x/4B/4G/4B/4x/4B/4G/4B/4x/4B/4G/4B/4(3:2:12x/4B/4G/4B/4x/4B/4G/4B/4x/4B/4G/4B/4 | %39
 (3:2:12!arpeggio![B^d]/4d/4A/4d/4 A/4d/4A/4d/4 !arpeggio![Bd]/4d/4A/4d/4 (3:2:12!arpeggio![Bd]/4d/4A/4d/4 A/4d/4A/4d/4 !arpeggio![Bd]/4d/4A/4d/4(3:2:12x/4c/4A/4c/4 A/4c/4A/4c/4x/4c/4A/4c/4 (3:2:12!arpeggio![cd]/4c/4A/4c/4 A/4c/4A/4c/4x/4c/4A/4c/4 :: %40
(3:2:12x/4B/4^G/4B/4 e/4B/4G/4B/4x/4B/4G/4B/4(3:2:12x/4B/4G/4B/4x/4B/4G/4B/4x/4B/4G/4B/4(3:2:12x/4c/4A/4c/4x/4c/4A/4c/4x/4c/4A/4c/4 (3:2:12!arpeggio![c^d]/4c/4A/4c/4 A/4c/4A/4c/4x/4c/4A/4c/4 :| %41
(3:2:12x/4B/4^G/4B/4x/4B/4G/4B/4x/4B/4G/4B/4(3:2:12x/4B/4G/4B/4 G/4B/4G/4B/4 G/4B/4G/4B/4(3:2:12x/4B/4G/4B/4x/4B/4G/4B/4x/4B/4G/4B/4(3:2:12x/4B/4G/4B/4 G/4B/4G/4B/4 G/4B/4G/4B/4 | %42
(3:2:12x/4!p!B/4^G/4B/4x/4B/4G/4B/4x/4B/4G/4B/4(3:2:12x/4B/4G/4B/4 G/4B/4G/4B/4 G/4B/4G/4!mp!B/4 (3z [GB][GB] (3[GB][GB][GB] | %43
 x8 | (3z Ac (3ecA (3z Ac (3ecA | (3z FA (3cAF (3z EA (3cAE | x8 | x8 | (3z Ac (3ecA (3z Ac (3ecA | %49
 x8 | x8 | x8 | x8 | x8 |[M:3/4] x4 (3z [^F^d][Fd] |[M:4/4] x8 | x8 | x8 | x8 | x8 | x4 | x4 |: %62
 (3:2:6[ce]/[ce]/[ce]/[ce]/[ce]/[ce]/ (3:2:6[ce]/[ce]/[ce]/[ce]/[ce]/[ce]/ (3:2:6a/[df]/[df]/[df]/[df]/[df]/ (3:2:6c'/[de]/[de]/[de]/[de]/[de]/ :| %63
 x8 | %64
 x4 (3:2:6!arpeggio![EAc]/!pp![EAc]/[EAc]/[EAc]/[EAc]/[EAc]/ (3:2:6!arpeggio![EAB]/!pp![EAB]/[EAB]/[EAB]/ !arpeggio![E^GB]/!pp![EGB]/ | %65
 x8 | x8 |] %67
V:6
 x12 | x12 | x12 | x12 | !5!A,,6 !5!F,6 | %5
 [!3!B,!2!F] [!4!D,!3!B,!2!F] [!4!D,!3!B,!2!F] [!4!D,!3!B,!2!F] [!4!D,!3!B,!2!F] [!4!D,!3!B,!2!F] !arpeggio![!4!^G,!3!B,!2!E] [!4!G,!3!B,!2!E] [!4!G,!3!B,!2!E] !>![!4!G,!3!B,!2!F] [!4!G,!3!B,!2!E] [!3!B,!2!F] | %6
 [!3!C!2!E] !>![!4!A,!3!C!2!F] [!4!A,!3!C!2!E] [!2!B,!3!D] [!4!^G,!2!B,!3!D] [!4!G,!2!B,!3!D] x [!4!C!3!E] [!4!C!3!E] x [!3!D!2!F] [!3!D!2!F] | %7
 [!3!A,!2!C] [!3!A,!2!C] [!3!A,!2!C] [!3!A,!2!C] x8 | %8
 !3!A, !3!A, !3!A, [!3!A,!2!B,] [!3!A,!2!B,] [!3!A,!2!B,] x [!3!A,!2!B,] [!3!A,!2!B,] x [!3!A,!2!B,] [!3!A,!2!B,] | %9
 [!3!^G,!2!B,] [!3!G,!2!B,] [!3!G,!2!B,] [!3!A,!2!C] [!3!A,!2!C] [!3!A,!2!C] [!3!G,!2!B,] [!3!G,!2!B,] [!3!G,!2!B,] [!3!A,!2!C] [!3!A,!2!C] [!3!A,!2!C] | %10
 [!3!^G,!2!B,] [!3!G,!2!B,] [!3!G,!2!B,] [!3!G,!2!B,] [!3!G,!2!B,] [!3!G,!2!B,] x2 x4 | x12 |: %12
 !2!x/4 !3!B,/4 !4!^G,/4 !3!B,/4 !1!x/4 !3!B,/4 !4!G,/4 !3!B,/4 !2!x/4 !3!B,/4 !4!G,/4 !3!B,/4 !4!x/4 !3!B,/4 !4!G,/4 !3!B,/4 !3!x/4 !3!B,/4 !4!G,/4 !3!B,/4 !2!x/4 !3!B,/4 !4!G,/4 !3!B,/4 !6!E,,/4 !3!C/4 !4!A,/4 !3!C/4 !3!x/4 !3!C/4 !4!A,/4 !3!C/4 !1!x/4 !3!C/4 !4!A,/4 !3!C/4 !5!x/4 !3!C/4 !4!A,/4 !3!C/4 !3!x/4 !3!C/4 !4!A,/4 !3!C/4 !1!x/4 !3!C/4 !4!A,/4 !3!C/4 |1 %13
 !6!E,,/4 !3!D/4 !4!B,/4 !3!D/4 !1!x/4 !3!D/4 !4!B,/4 !3!D/4 !2!x/4 !3!D/4 !4!B,/4 !3!D/4 !6!B,,/4 !3!D/4 !4!B,/4 !3!D/4 !1!x/4 !3!D/4 !4!B,/4 !3!D/4 !2!x/4 !3!D/4 !4!B,/4 !3!D/4 !6!x/4 !3!C/4 !4!A,/4 !3!C/4 !2!x/4 !3!C/4 !4!A,/4 !3!C/4 !2!x/4 !3!C/4 !4!A,/4 !3!C/4 !2!x/4 !3!C/4 !4!A,/4 !3!C/4 !1!x/4 !3!C/4 !4!A,/4 !3!C/4 !1!x/4 !3!C/4 !4!A,/4 !3!C/4 :|2 %14
 !6!x/4 !3!D/4 !4!B,/4 !3!D/4 !1!x/4 !3!D/4 !4!B,/4 !3!D/4 !2!x/4 !3!D/4 !4!B,/4 !3!D/4 !6!B,,/4 !3!D/4 !4!B,/4 !3!D/4 !1!x/4 !3!D/4 !4!B,/4 !3!D/4 !2!x/4 !3!D/4 !4!B,/4 !3!D/4 !6!x/4 !3!C/4 !4!A,/4 !3!C/4 !2!x/4 !3!C/4 !4!A,/4 !3!C/4 !2!x/4 !3!C/4 !4!A,/4 !3!C/4 !2!x/4 !3!C/4 !4!A,/4 !3!C/4 !1!x/4 !3!C/4 !4!A,/4 !3!C/4 !1!x/4 !3!C/4 !4!A,/4 !3!C/4 || %15
 !2!x/4!<(! !3!A,/4 !4!F,/4 !3!A,/4 !3!x/4 !3!A,/4 !4!F,/4 !3!A,/4 !3!x/4 !3!A,/4 !4!F,/4 !3!A,/4!<)! !3!x/4!>(! !3!A,/4 !4!F,/4 !3!A,/4 !3!x/4 !3!A,/4 !4!F,/4 !3!A,/4 !3!x/4 !3!A,/4 !4!F,/4 !3!A,/4!>)! [!3!A,!2!C]/ !4!E,/4 [!3!A,!2!C]/4 !4!E,/4 [!3!A,!2!C]/4 !4!E,/4 [!3!A,!2!C]/4 !4!E,/4 [!3!A,!2!C]/4 !4!E,/4 [!3!A,!2!C]/4 !5!x/4 [!3!A,!2!C]/4 !6!E,,/4 [!3!A,!2!C]/4 !6!x/4 [!3!A,!2!C]/4 !6!E,,/4 [!3!A,!2!C]/4 !6!x/4 [!3!A,!2!C]/4 !6!x/4 [!3!A,!2!C]/4 | %16
 !5!x/4 !2!C/4 !3!A,/4 !2!C/4 !2!x/4 !2!C/4 !3!A,/4 !2!C/4 !5!x/4 !2!C/4 !3!A,/4 !2!C/4 !5!x/4 !2!C/4 !3!A,/4 !2!C/4 !2!x/4 !2!C/4 !3!A,/4 !2!C/4 !5!x/4 !2!C/4 !3!A,/4 !2!C/4 !5!x/4 !2!B,/4 !3!A,/4 !2!B,/4 !2!x/4 !2!B,/4 !3!A,/4 !2!B,/4 !5!x/4 !2!B,/4 !3!A,/4 !2!B,/4 !5!x/4 !2!B,/4 !3!^G,/4 !2!B,/4 !2!x/4 !2!B,/4 !3!G,/4 !2!B,/4 !5!x/4 !2!B,/4 !3!G,/4 !2!B,/4 |: %17
 x6 x !4!C !4!C !4!C !4!C !4!C :| %18
 !6!E,,/4 !3!E/4 !4!D/4 !3!E/4 !5!^G,/4 !3!E/4 !4!D/4 !3!E/4 !2!B,/4 !3!E/4 !4!D/4 !3!E/4 !2!x/4 !3!E/4 !4!D/4 !3!E/4 !2!B,/4 !3!E/4 !4!D/4 !3!E/4 !5!G,/4 !3!E/4 !4!D/4 !3!E/4 !6!E,,/4 !3!E/4 !4!D/4 !3!E/4 !5!G,/4 !3!E/4 !4!D/4 !3!E/4 !2!B,/4 !3!E/4 !4!D/4 !3!E/4 !2!x/4 !3!E/4 !4!D/4 !3!E/4 !2!B,/4 !3!E/4 !4!D/4 !3!E/4 !5!G,/4 !3!E/4 !4!D/4 !3!E/4 | %19
 x12 | x12 ||[M:4/4] x8 | (3x !4!A, !3!C (3!2!E !3!C !4!A, (3x !4!A, !3!C (3!2!E !3!C !4!A, | %23
 (3x!<(! !4!F, !3!A, (3!2!C !3!A, !4!F, (3x!<)! !4!E,!>(! !3!A, (3!2!C !3!A, !4!E,!>)! | x8 | x8 | %26
 (3!2!E !4!A, !3!C (3!2!E !3!C !4!A, (3!6!x !4!A, !3!C (3!2!E !3!C !4!A, | x8 | x8 | x8 | %30
 (3x [!4!A,!2!F] [!4!A,!2!F] (3!4!A, !4!A, !4!A, (3x [!4!^F,!2!^D] [!4!F,!2!D] x2 | %31
 x6 (3!3!G, !3!G, !3!G, | %32
[M:3/4] (3x [!4!A,!2!F] [!4!A,!2!F] (3[!4!C!3!F!2!A] [!4!C!3!F] [!4!C!3!F] (3x [!5!^F,!3!^D] [!5!F,!3!D] | %33
[M:4/4] x8 | x8 | x8 | x8 | x8 |: %38
 (3:2:12!2!x/4 !2!B,/4 !5!^G,/4 !2!B,/4 !2!x/4 !2!B,/4 !5!G,/4 !2!B,/4 !2!x/4 !2!B,/4 !5!G,/4 !2!B,/4 (3:2:12!2!x/4 !2!B,/4 !5!G,/4 !2!B,/4 !2!x/4 !2!B,/4 !5!G,/4 !2!B,/4 !2!x/4 !2!B,/4 !5!G,/4 !2!B,/4 (3:2:12!6!E,,/4 !2!B,/4 !4!G,/4 !2!B,/4 !2!x/4 !2!B,/4 !4!G,/4 !2!B,/4 !2!x/4 !2!B,/4 !4!G,/4 !2!B,/4 (3:2:12!2!x/4 !2!B,/4 !4!G,/4 !2!B,/4 !2!x/4 !2!B,/4 !4!G,/4 !2!B,/4 !2!x/4 !2!B,/4 !4!G,/4 !2!B,/4 | %39
 (3:2:12!arpeggio![!2!B,!3!^D]/4 !3!D/4 !4!A,/4 !3!D/4 !4!A,/4 !3!D/4 !4!A,/4 !3!D/4 !arpeggio![!2!B,!3!D]/4 !3!D/4 !4!A,/4 !3!D/4 (3:2:12!arpeggio![!2!B,!3!D]/4 !3!D/4 !4!A,/4 !3!D/4 !4!A,/4 !3!D/4 !4!A,/4 !3!D/4 !arpeggio![!2!B,!3!D]/4 !3!D/4 !4!A,/4 !3!D/4 (3:2:12!2!x/4 !3!C/4 !4!A,/4 !3!C/4 !4!A,/4 !3!C/4 !4!A,/4 !3!C/4 !3!x/4 !3!C/4 !4!A,/4 !3!C/4 (3:2:12!arpeggio![!3!C!2!D]/4 !3!C/4 !4!A,/4 !3!C/4 !4!A,/4 !3!C/4 !4!A,/4 !3!C/4 !1!x/4 !3!C/4 !4!A,/4 !3!C/4 :: %40
 (3:2:12!6!E,,/4 !3!B,/4 !4!^G,/4 !3!B,/4 !1!x/4 !3!B,/4 !4!G,/4 !3!B,/4 !3!x/4 !3!B,/4 !4!G,/4 !3!B,/4 (3:2:12!1!x/4 !3!B,/4 !4!G,/4 !3!B,/4 !1!x/4 !3!B,/4 !4!G,/4 !3!B,/4 !1!x/4 !3!B,/4 !4!G,/4 !3!B,/4 (3:2:12!6!E,,/4 !3!C/4 !4!A,/4 !3!C/4 !3!x/4 !3!C/4 !4!A,/4 !3!C/4 !2!x/4 !3!C/4 !4!A,/4 !3!C/4 (3:2:12!arpeggio![!3!C!2!^D]/4 !3!C/4 !4!A,/4 !3!C/4 !4!A,/4 !3!C/4 !4!A,/4 !3!C/4 !1!x/4 !3!C/4 !4!A,/4 !3!C/4 :| %41
 (3:2:12!2!x/4 !3!B,/4 !4!^G,/4 !3!B,/4 !3!x/4 !3!B,/4 !4!G,/4 !3!B,/4 !1!x/4 !3!B,/4 !4!G,/4 !3!B,/4 (3:2:12!1!x/4 !3!B,/4 !4!G,/4 !3!B,/4 !4!G,/4 !3!B,/4 !4!G,/4 !3!B,/4 !4!G,/4 !3!B,/4 !4!G,/4 !3!B,/4 (3:2:12!1!x/4 !3!B,/4 !4!G,/4 !3!B,/4 !3!x/4 !3!B,/4 !4!G,/4 !3!B,/4 !1!x/4 !3!B,/4 !4!G,/4 !3!B,/4 (3:2:12!1!x/4 !3!B,/4 !4!G,/4 !3!B,/4 !4!G,/4 !3!B,/4 !4!G,/4 !3!B,/4 !4!G,/4 !3!B,/4 !4!G,/4 !3!B,/4 | %42
 (3:2:12!1!x/4 !3!B,/4 !4!^G,/4 !3!B,/4 !3!x/4 !3!B,/4 !4!G,/4 !3!B,/4 !1!x/4 !3!B,/4 !4!G,/4 !3!B,/4 (3:2:12!1!x/4 !3!B,/4 !4!G,/4 !3!B,/4 !4!G,/4 !3!B,/4 !4!G,/4 !3!B,/4 !4!G,/4 !3!B,/4 !4!G,/4 !3!B,/4 (3x [!4!G,!3!B,] [!4!G,!3!B,] (3[!4!G,!3!B,] [!4!G,!3!B,] [!4!G,!3!B,] | %43
 x8 | (3x !4!A, !3!C (3!2!E !3!C !4!A, (3x !4!A, !3!C (3!2!E !3!C !4!A, | %45
 (3x !4!F, !3!A, (3!2!C !3!A, !4!F, (3x !4!E, !3!A, (3!2!C !3!A, !4!E, | x8 | x8 | %48
 (3x !4!A, !3!C (3!2!E !3!C !4!A, (3x !4!A, !3!C (3!2!E !3!C !4!A, | x8 | x8 | x8 | x8 | x8 | %54
[M:3/4] x4 (3x [!5!^F,!3!^D] [!5!F,!3!D] |[M:4/4] x8 | x8 | x8 | x8 | x8 | x4 | x4 |: %62
 (3:2:6[!3!C!2!E]/ [!3!C!2!E]/ [!3!C!2!E]/ [!3!C!2!E]/ [!3!C!2!E]/ [!3!C!2!E]/ (3:2:6[!3!C!2!E]/ [!3!C!2!E]/ [!3!C!2!E]/ [!3!C!2!E]/ [!3!C!2!E]/ [!3!C!2!E]/ (3:2:6!2!x/ [!3!D!2!F]/ [!3!D!2!F]/ [!3!D!2!F]/ [!3!D!2!F]/ [!3!D!2!F]/ (3:2:6!2!x/ [!3!D!2!E]/ [!3!D!2!E]/ [!3!D!2!E]/ [!3!D!2!E]/ [!3!D!2!E]/ :| %63
 x8 | %64
 x4 (3:2:6!arpeggio![!4!E,!3!A,!2!C]/ [!4!E,!3!A,!2!C]/ [!4!E,!3!A,!2!C]/ [!4!E,!3!A,!2!C]/ [!4!E,!3!A,!2!C]/ [!4!E,!3!A,!2!C]/ (3:2:6!arpeggio![!4!E,!3!A,!2!B,]/ [!4!E,!3!A,!2!B,]/ [!4!E,!3!A,!2!B,]/ [!4!E,!3!A,!2!B,]/ !arpeggio![!4!E,!3!^G,!2!B,]/ [!4!E,!3!G,!2!B,]/ | %65
 x8 | x8 |] %67
V:7
 x12 | x12 | x12 | x12 | x12 | x12 | x12 | !2!E3- E/ x/ x8 | x12 | x12 | x12 | x12 |: x12 |1 %13
 x12 :|2 x12 || x12 | x12 |: x12 :| x12 | x12 | x12 ||[M:4/4] x8 | x8 | x8 | x8 | x8 | x8 | x8 | %28
 x8 | x8 | x8 | x8 |[M:3/4] x6 |[M:4/4] x8 | x8 | x8 | x8 | x8 |: x8 | x8 :: x8 :| x8 | x8 | x8 | %44
 x8 | x8 | x8 | x8 | x8 | x8 | x8 | x8 | x8 | x8 |[M:3/4] x6 |[M:4/4] x8 | x8 | x8 | x8 | x8 | x4 | %61
 x4 |: x8 :| x8 | x8 | x8 | x8 |] %67
V:8
 x12 | x12 | x12 | x12 | x12 | x12 | x12 | !4!E,3- !4!E,/ x/ x8 | x12 | x12 | x12 | x12 |: x12 |1 %13
 x12 :|2 x12 || x12 | x12 |: x12 :| x12 | x12 | x12 ||[M:4/4] x8 | x8 | x8 | x8 | x8 | x8 | x8 | %28
 x8 | x8 | x8 | x8 |[M:3/4] x6 |[M:4/4] x8 | x8 | x8 | x8 | x8 |: x8 | x8 :: x8 :| x8 | x8 | x8 | %44
 x8 | x8 | x8 | x8 | x8 | x8 | x8 | x8 | x8 | x8 |[M:3/4] x6 |[M:4/4] x8 | x8 | x8 | x8 | x8 | x4 | %61
 x4 |: x8 :| x8 | x8 | x8 | x8 |] %67

